X: 123
T: Miss Dundas of Melville's Strathspey
%C:
R: strathspey
Q: "Slow"
B: William Shepherd "1st Collection" 1793 p.12 #3
F: http://imslp.org/wiki/File:PMLP73094-Shepherd_Collections_HMT.pdf
C: William Shepherd (17??-1812)
Z: 2012 John Chambers <jc:trillian.mit.edu>
M: C
L: 1/16
K: Am
CB, |\
A,3AA2E2 C3D FEDC | B,3GG2D2 B,CDB, G,2CB, |\
A,3AA2E2 C3D FEDC | (Bc).d.B (ed).c.B c2A2A2 :|
cB |\
A3a-a2e2 Tc3d (fe).d.c | G3gB3g (Bc).d.c (cB).A.G |\
A3ac3a A3a (fe).d.c | (Bc).d.B (ed).c.B c2A2 A2 ||
cB |\
A3aa2e2 Tc3d fedc | G2g2B2g2 G2g2 edcB |\
ABcA BcdB c3eE3C | B,3G (ED).C.B, C2A,2A,2 |]
